; G-Code generated by Simplify3D(R) Version 4.1.2
; Oct 7, 2020 at 8:21:17 PM
; Settings Summary
;   processName,Process1
;   applyToModels,Toothpaste_Squeezer
;   profileName,Creality Ender 3 (modified)
;   profileVersion,2019-10-22 20:55:16
;   baseProfile,
;   printMaterial,PLA
;   printQuality,Medium
;   printExtruders,
;   extruderName,Primary Extruder
;   extruderToolheadNumber,0
;   extruderDiameter,0.4
;   extruderAutoWidth,0
;   extruderWidth,0.4
;   extrusionMultiplier,1
;   extruderUseRetract,1
;   extruderRetractionDistance,7
;   extruderExtraRestartDistance,-0.1
;   extruderRetractionZLift,0.2
;   extruderRetractionSpeed,6000
;   extruderUseCoasting,1
;   extruderCoastingDistance,0.2
;   extruderUseWipe,1
;   extruderWipeDistance,5
;   primaryExtruder,0
;   layerHeight,0.2
;   topSolidLayers,3
;   bottomSolidLayers,3
;   perimeterOutlines,3
;   printPerimetersInsideOut,1
;   startPointOption,3
;   startPointOriginX,0
;   startPointOriginY,0
;   sequentialIslands,0
;   spiralVaseMode,0
;   firstLayerHeightPercentage,120
;   firstLayerWidthPercentage,150
;   firstLayerUnderspeed,0.5
;   useRaft,0
;   raftExtruder,0
;   raftTopLayers,3
;   raftBaseLayers,2
;   raftOffset,3
;   raftSeparationDistance,0.14
;   raftTopInfill,100
;   aboveRaftSpeedMultiplier,0.3
;   useSkirt,1
;   skirtExtruder,0
;   skirtLayers,1
;   skirtOutlines,2
;   skirtOffset,4
;   usePrimePillar,0
;   primePillarExtruder,999
;   primePillarWidth,12
;   primePillarLocation,7
;   primePillarSpeedMultiplier,1
;   useOozeShield,0
;   oozeShieldExtruder,999
;   oozeShieldOffset,2
;   oozeShieldOutlines,1
;   oozeShieldSidewallShape,1
;   oozeShieldSidewallAngle,30
;   oozeShieldSpeedMultiplier,1
;   infillExtruder,0
;   internalInfillPattern,Rectilinear
;   externalInfillPattern,Rectilinear
;   infillPercentage,20
;   outlineOverlapPercentage,40
;   infillExtrusionWidthPercentage,120
;   minInfillLength,5
;   infillLayerInterval,1
;   internalInfillAngles,45,-45
;   overlapInternalInfillAngles,0
;   externalInfillAngles,45,-45
;   generateSupport,0
;   supportExtruder,0
;   supportInfillPercentage,30
;   supportExtraInflation,0
;   supportBaseLayers,0
;   denseSupportExtruder,0
;   denseSupportLayers,0
;   denseSupportInfillPercentage,70
;   supportLayerInterval,1
;   supportHorizontalPartOffset,0.3
;   supportUpperSeparationLayers,1
;   supportLowerSeparationLayers,1
;   supportType,0
;   supportGridSpacing,4
;   maxOverhangAngle,45
;   supportAngles,0
;   temperatureName,Primary Extruder,Heated Bed
;   temperatureNumber,0,0
;   temperatureSetpointCount,1,1
;   temperatureSetpointLayers,1,1
;   temperatureSetpointTemperatures,210,60
;   temperatureStabilizeAtStartup,1,1
;   temperatureHeatedBed,0,1
;   fanLayers,1,2
;   fanSpeeds,0,100
;   blipFanToFullPower,0
;   adjustSpeedForCooling,1
;   minSpeedLayerTime,15
;   minCoolingSpeedSlowdown,20
;   increaseFanForCooling,0
;   minFanLayerTime,45
;   maxCoolingFanSpeed,100
;   increaseFanForBridging,0
;   bridgingFanSpeed,100
;   use5D,1
;   relativeEdistances,0
;   allowEaxisZeroing,1
;   independentExtruderAxes,0
;   includeM10123,0
;   stickySupport,1
;   applyToolheadOffsets,0
;   gcodeXoffset,0
;   gcodeYoffset,0
;   gcodeZoffset,0
;   overrideMachineDefinition,1
;   machineTypeOverride,0
;   strokeXoverride,220
;   strokeYoverride,220
;   strokeZoverride,300
;   originOffsetXoverride,-5
;   originOffsetYoverride,-5
;   originOffsetZoverride,0
;   homeXdirOverride,-1
;   homeYdirOverride,-1
;   homeZdirOverride,-1
;   flipXoverride,1
;   flipYoverride,-1
;   flipZoverride,1
;   toolheadOffsets,0,0|0,0|0,0|0,0|0,0|0,0
;   overrideFirmwareConfiguration,1
;   firmwareTypeOverride,RepRap (Marlin/Repetier/Sprinter)
;   GPXconfigOverride,r2
;   baudRateOverride,115200
;   overridePrinterModels,1
;   printerModelsOverride
;   startingGcode,G28 ; home all axes,g29 ;,G1 X5 Y10 Z0.2 F3000 ; get ready to prime,G92 E0 ; reset extrusion distance,G1 X160 E15 F600 ; prime nozzle,G1 X180 F5000 ; quick wipe
;   layerChangeGcode,
;   retractionGcode,
;   toolChangeGcode,
;   endingGcode,G28 X0 ; home X axis,M106 S0 ; turn off cooling fan,M104 S0 ; turn off extruder,M140 S0 ; turn off bed,M84 ; disable motors
;   exportFileFormat,gcode
;   celebration,0
;   celebrationSong,Funky Town
;   postProcessing,
;   defaultSpeed,3600
;   outlineUnderspeed,0.5
;   solidInfillUnderspeed,0.8
;   supportUnderspeed,0.8
;   rapidXYspeed,12000
;   rapidZspeed,1002
;   minBridgingArea,50
;   bridgingExtraInflation,0
;   bridgingExtrusionMultiplier,1
;   bridgingSpeedMultiplier,1
;   useFixedBridgingAngle,0
;   fixedBridgingAngle,0
;   applyBridgingToPerimeters,0
;   filamentDiameters,1.75|1.75|1.75|1.75|1.75|1.75
;   filamentPricesPerKg,46|46|46|46|46|46
;   filamentDensities,1.25|1.25|1.25|1.25|1.25|1.25
;   useMinPrintHeight,0
;   minPrintHeight,0
;   useMaxPrintHeight,0
;   maxPrintHeight,0
;   useDiaphragm,0
;   diaphragmLayerInterval,20
;   robustSlicing,1
;   mergeAllIntoSolid,0
;   onlyRetractWhenCrossingOutline,1
;   retractBetweenLayers,1
;   useRetractionMinTravel,0
;   retractionMinTravel,3
;   retractWhileWiping,1
;   onlyWipeOutlines,1
;   avoidCrossingOutline,1
;   maxMovementDetourFactor,20
;   toolChangeRetractionDistance,12
;   toolChangeExtraRestartDistance,-0.5
;   toolChangeRetractionSpeed,600
;   externalThinWallType,0
;   internalThinWallType,2
;   thinWallAllowedOverlapPercentage,10
;   singleExtrusionMinLength,1
;   singleExtrusionMinPrintingWidthPercentage,50
;   singleExtrusionMaxPrintingWidthPercentage,200
;   singleExtrusionEndpointExtension,0.2
;   horizontalSizeCompensation,0
G90
M82
M106 S0
M140 S60
M190 S60
M104 S210 T0
M109 S210 T0
G28 ; home all axes
g29 ;
G1 X5 Y10 Z0.2 F3000 ; get ready to prime
G92 E0 ; reset extrusion distance
G1 X160 E15 F600 ; prime nozzle
G1 X180 F5000 ; quick wipe
; process Process1
; layer 1, Z = 0.240
T0
G92 E0.0000
G1 E-7.0000 F6000
; feature skirt
; tool H0.240 W0.600
G1 Z0.240 F1002
G1 X71.995 Y88.180 F12000
G1 E-0.1000 F6000
G92 E0.0000
G1 X72.678 Y87.654 E0.0516 F1800
G1 X72.911 Y87.495 E0.0685
G1 X73.960 Y86.864 E0.1418
G1 X74.268 Y86.707 E0.1625
G1 X75.209 Y86.309 E0.2236
G1 X75.421 Y86.231 E0.2372
G1 X75.988 Y86.050 E0.2728
G1 X76.206 Y85.992 E0.2863
G1 X77.146 Y85.786 E0.3439
G1 X77.369 Y85.748 E0.3575
G1 X77.922 Y85.679 E0.3908
G1 X78.072 Y85.665 E0.3998
G1 X78.590 Y85.633 E0.4309
G1 X78.741 Y85.629 E0.4399
G1 X141.259 Y85.629 E4.1828
G1 X141.410 Y85.633 E4.1919
G1 X141.966 Y85.668 E4.2252
G1 X142.191 Y85.692 E4.2387
G1 X143.179 Y85.845 E4.2986
G1 X143.474 Y85.910 E4.3167
G1 X144.460 Y86.191 E4.3781
G1 X144.723 Y86.282 E4.3947
G1 X145.463 Y86.587 E4.4426
G1 X145.645 Y86.671 E4.4547
G1 X146.341 Y87.027 E4.5015
G1 X146.579 Y87.166 E4.5179
G1 X147.433 Y87.731 E4.5792
G1 X147.673 Y87.913 E4.5973
G1 X148.461 Y88.588 E4.6594
G1 X148.678 Y88.799 E4.6775
G1 X149.352 Y89.537 E4.7374
G1 X149.496 Y89.711 E4.7509
G1 X149.854 Y90.186 E4.7865
G1 X149.982 Y90.373 E4.8000
G1 X150.509 Y91.223 E4.8599
G1 X150.652 Y91.489 E4.8780
G1 X151.085 Y92.431 E4.9401
G1 X151.194 Y92.713 E4.9582
G1 X151.505 Y93.690 E5.0196
G1 X151.574 Y93.960 E5.0362
G1 X151.729 Y94.744 E5.0841
G1 X151.760 Y94.943 E5.0962
G1 X151.847 Y95.720 E5.1430
G1 X151.863 Y95.995 E5.1594
G1 X151.863 Y97.019 E5.2207
G1 X151.844 Y97.320 E5.2388
G1 X151.717 Y98.350 E5.3009
G1 X151.661 Y98.646 E5.3190
G1 X151.408 Y99.653 E5.3811
G1 X151.316 Y99.940 E5.3992
G1 X150.942 Y100.908 E5.4613
G1 X150.816 Y101.182 E5.4794
G1 X150.325 Y102.096 E5.5415
G1 X150.166 Y102.353 E5.5596
G1 X149.588 Y103.169 E5.6194
G1 X149.449 Y103.347 E5.6330
G1 X149.066 Y103.794 E5.6682
G1 X148.921 Y103.950 E5.6810
G1 X148.302 Y104.556 E5.7328
G1 X148.197 Y104.653 E5.7414
G1 X117.040 Y131.788 E8.2149
G1 X116.908 Y131.895 E8.2251
G1 X116.162 Y132.458 E8.2810
G1 X115.976 Y132.586 E8.2946
G1 X115.470 Y132.899 E8.3302
G1 X115.272 Y133.009 E8.3437
G1 X114.411 Y133.438 E8.4013
G1 X114.204 Y133.530 E8.4149
G1 X113.650 Y133.744 E8.4505
G1 X113.435 Y133.816 E8.4640
G1 X112.451 Y134.096 E8.5253
G1 X112.110 Y134.168 E8.5462
G1 X110.879 Y134.335 E8.6205
G1 X110.598 Y134.357 E8.6374
G1 X109.788 Y134.373 E8.6859
G1 X109.536 Y134.365 E8.7010
G1 X108.753 Y134.300 E8.7481
G1 X108.553 Y134.275 E8.7601
G1 X107.782 Y134.147 E8.8069
G1 X107.513 Y134.086 E8.8234
G1 X106.565 Y133.816 E8.8824
G1 X106.350 Y133.744 E8.8960
G1 X105.796 Y133.530 E8.9316
G1 X105.589 Y133.438 E8.9451
G1 X104.728 Y133.009 E9.0027
G1 X104.530 Y132.899 E9.0163
G1 X104.024 Y132.586 E9.0518
G1 X103.838 Y132.458 E9.0654
G1 X103.092 Y131.895 E9.1213
G1 X102.959 Y131.788 E9.1316
G1 X71.803 Y104.653 E11.6050
G1 X71.698 Y104.556 E11.6137
G1 X71.061 Y103.932 E11.6670
G1 X70.882 Y103.736 E11.6829
G1 X70.353 Y103.091 E11.7328
G1 X70.187 Y102.864 E11.7497
G1 X69.544 Y101.866 E11.8208
G1 X69.411 Y101.631 E11.8369
G1 X69.136 Y101.080 E11.8738
G1 X69.045 Y100.873 E11.8874
G1 X68.697 Y99.976 E11.9450
G1 X68.625 Y99.761 E11.9585
G1 X68.463 Y99.189 E11.9941
G1 X68.411 Y98.969 E12.0077
G1 X68.227 Y97.986 E12.0675
G1 X68.190 Y97.686 E12.0856
G1 X68.127 Y96.663 E12.1470
G1 X68.125 Y96.385 E12.1636
G1 X68.167 Y95.586 E12.2115
G1 X68.186 Y95.385 E12.2236
G1 X68.290 Y94.611 E12.2704
G1 X68.342 Y94.341 E12.2868
G1 X68.598 Y93.325 E12.3496
G1 X68.707 Y92.993 E12.3705
G1 X69.178 Y91.843 E12.4448
G1 X69.299 Y91.589 E12.4617
G1 X69.707 Y90.849 E12.5123
G1 X69.881 Y90.578 E12.5316
G1 X70.634 Y89.556 E12.6076
G1 X70.870 Y89.281 E12.6293
G1 X71.754 Y88.393 E12.7043
G1 X71.995 Y88.180 E12.7236
G92 E0.0000
G1 E-7.0000 F6000
G1 Z0.440 F1002
G1 X72.377 Y88.643 F12000
G1 Z0.240 F1002
G1 E-0.1000 F6000
G92 E0.0000
G1 X73.030 Y88.140 E0.0494 F1800
G1 X73.235 Y88.000 E0.0642
G1 X74.251 Y87.389 E0.1352
G1 X74.521 Y87.252 E0.1534
G1 X75.430 Y86.867 E0.2124
G1 X75.616 Y86.798 E0.2243
G1 X76.156 Y86.626 E0.2582
G1 X76.348 Y86.575 E0.2701
G1 X77.261 Y86.375 E0.3261
G1 X77.457 Y86.342 E0.3380
G1 X77.986 Y86.276 E0.3699
G1 X78.118 Y86.264 E0.3778
G1 X78.617 Y86.233 E0.4078
G1 X78.750 Y86.229 E0.4157
G1 X141.250 Y86.229 E4.1575
G1 X141.383 Y86.233 E4.1654
G1 X141.915 Y86.266 E4.1974
G1 X142.113 Y86.287 E4.2093
G1 X143.069 Y86.436 E4.2672
G1 X143.327 Y86.492 E4.2830
G1 X144.280 Y86.763 E4.3423
G1 X144.510 Y86.843 E4.3569
G1 X145.223 Y87.137 E4.4031
G1 X145.383 Y87.211 E4.4136
G1 X146.053 Y87.553 E4.4587
G1 X146.261 Y87.675 E4.4731
G1 X147.086 Y88.221 E4.5323
G1 X147.297 Y88.381 E4.5482
G1 X148.057 Y89.032 E4.6081
G1 X148.247 Y89.216 E4.6240
G1 X148.899 Y89.931 E4.6819
G1 X149.026 Y90.084 E4.6938
G1 X149.367 Y90.536 E4.7277
G1 X149.480 Y90.700 E4.7396
G1 X149.989 Y91.523 E4.7975
G1 X150.114 Y91.756 E4.8134
G1 X150.532 Y92.665 E4.8733
G1 X150.628 Y92.912 E4.8891
G1 X150.928 Y93.856 E4.9484
G1 X150.989 Y94.092 E4.9630
G1 X151.138 Y94.848 E5.0092
G1 X151.165 Y95.023 E5.0197
G1 X151.249 Y95.770 E5.0648
G1 X151.263 Y96.011 E5.0792
G1 X151.263 Y97.000 E5.1384
G1 X151.246 Y97.265 E5.1543
G1 X151.123 Y98.258 E5.2142
G1 X151.075 Y98.518 E5.2300
G1 X150.831 Y99.488 E5.2899
G1 X150.750 Y99.741 E5.3058
G1 X150.389 Y100.674 E5.3657
G1 X150.278 Y100.914 E5.3816
G1 X149.805 Y101.796 E5.4415
G1 X149.665 Y102.021 E5.4573
G1 X149.106 Y102.811 E5.5153
G1 X148.984 Y102.967 E5.5271
G1 X148.619 Y103.393 E5.5607
G1 X148.491 Y103.530 E5.5719
G1 X147.889 Y104.121 E5.6225
G1 X147.796 Y104.207 E5.6300
G1 X116.654 Y131.328 E8.1024
G1 X116.538 Y131.423 E8.1113
G1 X115.812 Y131.971 E8.1658
G1 X115.648 Y132.084 E8.1777
G1 X115.166 Y132.382 E8.2116
G1 X114.993 Y132.479 E8.2235
G1 X114.156 Y132.895 E8.2795
G1 X113.975 Y132.975 E8.2913
G1 X113.446 Y133.180 E8.3253
G1 X113.258 Y133.243 E8.3372
G1 X112.307 Y133.513 E8.3963
G1 X112.008 Y133.576 E8.4146
G1 X110.815 Y133.738 E8.4867
G1 X110.568 Y133.757 E8.5015
G1 X109.791 Y133.772 E8.5481
G1 X109.571 Y133.766 E8.5613
G1 X108.814 Y133.703 E8.6067
G1 X108.639 Y133.681 E8.6173
G1 X107.897 Y133.557 E8.6623
G1 X107.661 Y133.505 E8.6768
G1 X106.742 Y133.243 E8.7340
G1 X106.554 Y133.180 E8.7459
G1 X106.025 Y132.975 E8.7798
G1 X105.844 Y132.895 E8.7917
G1 X105.007 Y132.479 E8.8476
G1 X104.834 Y132.382 E8.8595
G1 X104.352 Y132.084 E8.8935
G1 X104.188 Y131.971 E8.9053
G1 X103.462 Y131.423 E8.9598
G1 X103.346 Y131.328 E8.9688
G1 X72.204 Y104.207 E11.4411
G1 X72.111 Y104.121 E11.4487
G1 X71.492 Y103.514 E11.5006
G1 X71.335 Y103.343 E11.5145
G1 X70.828 Y102.724 E11.5624
G1 X70.682 Y102.524 E11.5772
G1 X70.058 Y101.555 E11.6463
G1 X69.940 Y101.349 E11.6604
G1 X69.679 Y100.825 E11.6955
G1 X69.599 Y100.643 E11.7074
G1 X69.262 Y99.772 E11.7633
G1 X69.198 Y99.583 E11.7752
G1 X69.043 Y99.038 E11.8092
G1 X68.998 Y98.845 E11.8210
G1 X68.820 Y97.894 E11.8790
G1 X68.788 Y97.631 E11.8948
G1 X68.727 Y96.643 E11.9541
G1 X68.725 Y96.399 E11.9687
G1 X68.765 Y95.629 E12.0148
G1 X68.782 Y95.453 E12.0254
G1 X68.882 Y94.708 E12.0705
G1 X68.928 Y94.471 E12.0849
G1 X69.174 Y93.492 E12.1454
G1 X69.270 Y93.201 E12.1637
G1 X69.726 Y92.087 E12.2358
G1 X69.833 Y91.864 E12.2506
G1 X70.223 Y91.156 E12.2989
G1 X70.376 Y90.918 E12.3159
G1 X71.104 Y89.930 E12.3894
G1 X71.311 Y89.688 E12.4084
G1 X72.165 Y88.830 E12.4809
G1 X72.377 Y88.643 E12.4978
G92 E0.0000
G1 E-7.0000 F6000
; feature inner perimeter
G1 Z0.440 F1002
G1 X75.306 Y92.193 F12000
G1 X75.312 Y92.189
G1 X76.078 Y93.114
G1 Z0.240 F1002
G1 E-0.1000 F6000
G92 E0.0000
G1 X76.423 Y92.848 E0.0261 F1350
G1 X76.777 Y92.619 E0.0513
G1 X77.006 Y92.496 E0.0669
G1 X77.256 Y92.381 E0.0834
G1 X77.513 Y92.281 E0.0999
G1 X77.776 Y92.198 E0.1164
G1 X78.043 Y92.130 E0.1329
G1 X78.314 Y92.080 E0.1494
G1 X78.587 Y92.046 E0.1659
G1 X78.862 Y92.029 E0.1824
G1 X141.138 Y92.029 E3.9107
G1 X141.413 Y92.046 E3.9272
G1 X141.686 Y92.080 E3.9437
G1 X141.957 Y92.130 E3.9602
G1 X142.224 Y92.198 E3.9767
G1 X142.471 Y92.276 E3.9922
G1 X142.875 Y92.442 E4.0183
G1 X143.249 Y92.634 E4.0435
G1 X143.471 Y92.771 E4.0591
G1 X143.696 Y92.930 E4.0756
G1 X143.910 Y93.103 E4.0921
G1 X144.114 Y93.289 E4.1086
G1 X144.306 Y93.486 E4.1251
G1 X144.485 Y93.696 E4.1416
G1 X144.651 Y93.915 E4.1581
G1 X144.803 Y94.145 E4.1746
G1 X144.941 Y94.384 E4.1910
G1 X145.064 Y94.630 E4.2075
G1 X145.171 Y94.884 E4.2240
G1 X145.263 Y95.144 E4.2405
G1 X145.334 Y95.394 E4.2561
G1 X145.418 Y95.822 E4.2822
G1 X145.465 Y96.239 E4.3074
G1 X145.473 Y96.500 E4.3230
G1 X145.465 Y96.775 E4.3395
G1 X145.439 Y97.050 E4.3560
G1 X145.397 Y97.322 E4.3724
G1 X145.338 Y97.591 E4.3889
G1 X145.263 Y97.856 E4.4054
G1 X145.171 Y98.116 E4.4219
G1 X145.064 Y98.370 E4.4384
G1 X144.941 Y98.616 E4.4549
G1 X144.803 Y98.855 E4.4714
G1 X144.651 Y99.085 E4.4879
G1 X144.485 Y99.304 E4.5044
G1 X144.318 Y99.499 E4.5197
G1 X143.906 Y99.903 E4.5543
G1 X112.923 Y126.886 E7.0140
G1 X112.696 Y127.070 E7.0315
G1 X112.471 Y127.229 E7.0480
G1 X112.237 Y127.374 E7.0645
G1 X111.994 Y127.504 E7.0810
G1 X111.744 Y127.619 E7.0975
G1 X111.487 Y127.719 E7.1140
G1 X111.224 Y127.802 E7.1305
G1 X110.957 Y127.870 E7.1470
G1 X110.702 Y127.917 E7.1625
G1 X110.268 Y127.962 E7.1886
G1 X109.863 Y127.970 E7.2129
G1 X109.443 Y127.935 E7.2381
G1 X109.028 Y127.866 E7.2633
G1 X108.776 Y127.802 E7.2789
G1 X108.513 Y127.719 E7.2954
G1 X108.256 Y127.619 E7.3119
G1 X108.006 Y127.504 E7.3284
G1 X107.763 Y127.374 E7.3449
G1 X107.529 Y127.229 E7.3613
G1 X107.304 Y127.070 E7.3778
G1 X107.076 Y126.886 E7.3953
G1 X76.094 Y99.903 E9.8550
G1 X75.693 Y99.510 E9.8887
G1 X75.429 Y99.188 E9.9136
G1 X75.189 Y98.842 E9.9388
G1 X75.059 Y98.616 E9.9544
G1 X74.936 Y98.370 E9.9709
G1 X74.829 Y98.116 E9.9874
G1 X74.737 Y97.856 E10.0039
G1 X74.662 Y97.591 E10.0204
G1 X74.603 Y97.322 E10.0369
G1 X74.561 Y97.050 E10.0534
G1 X74.535 Y96.776 E10.0699
G1 X74.527 Y96.516 E10.0854
G1 X74.550 Y96.080 E10.1115
G1 X74.606 Y95.663 E10.1367
G1 X74.662 Y95.409 E10.1523
G1 X74.737 Y95.144 E10.1688
G1 X74.824 Y94.899 E10.1843
G1 X75.002 Y94.501 E10.2105
G1 X75.205 Y94.133 E10.2356
G1 X75.340 Y93.929 E10.2503
G1 X75.610 Y93.586 E10.2764
G1 X75.897 Y93.279 E10.3016
G1 X75.930 Y93.248 E10.3043
G1 X76.078 Y93.114 F1350
G1 X75.692 Y92.654 F12000
G92 E0.0000
G1 X76.077 Y92.357 E0.0291 F1350
G1 X76.471 Y92.102 E0.0572
G1 X76.739 Y91.958 E0.0754
